public/images/logos/threads.svg

<?xml version="1.0" encoding="UTF-8" standalone="no"?>
<!-- Created with Vectornator (http://vectornator.io/) -->

<svg height="80" stroke-miterlimit="10" style="clip-rule:evenodd;fill-rule:nonzero;stroke-linecap:round;stroke-linejoin:round" version="1.1" viewBox="0 0 80.000002 80" width="80" xml:space="preserve" id="svg1" xmlns="http://www.w3.org/2000/svg" xmlns:svg="http://www.w3.org/2000/svg">
<defs id="defs1" />
<g id="Sem-Título" style="fill:#000000" transform="translate(5.58665)">
<path d="M 53.5571,37.0785 C 53.2125,36.9133 52.8625,36.7543 52.5079,36.6021 51.8904,25.2242 45.6733,18.7104 35.2341,18.6438 c -0.0473,-3e-4 -0.0943,-3e-4 -0.1416,-3e-4 -6.244,0 -11.437,2.6652 -14.6333,7.5151 l 5.7412,3.9384 c 2.3878,-3.6227 6.1351,-4.395 8.8949,-4.395 0.0318,0 0.0638,0 0.0954,3e-4 3.4372,0.0219 6.031,1.0213 7.7097,2.9702 1.2217,1.4189 2.0388,3.3796 2.4434,5.8541 -3.0476,-0.518 -6.3434,-0.6772 -9.8667,-0.4752 -9.9251,0.5717 -16.3058,6.3602 -15.8773,14.4036 0.2175,4.08 2.2501,7.59 5.7231,9.8829 2.9364,1.9384 6.7183,2.8863 10.6489,2.6717 5.1907,-0.2846 9.2628,-2.265 12.1036,-5.8863 2.1575,-2.75 3.5221,-6.3137 4.1246,-10.8041 2.4737,1.4929 4.3071,3.4575 5.3196,5.8191 1.7216,4.0146 1.8221,10.6117 -3.5609,15.99 -4.7162,4.7117 -10.3854,6.75 -18.9531,6.8129 C 25.5017,72.8708 18.3141,69.8229 13.6409,63.8821 9.26479,58.3192 7.00321,50.2842 6.91883,40 7.00321,29.7157 9.26479,21.6807 13.6409,16.1178 18.3141,10.177 25.5016,7.12917 35.0055,7.05854 c 9.5728,0.07117 16.8857,3.13366 21.7378,9.10316 2.3792,2.9273 4.173,6.6086 5.3554,10.9009 l 6.728,-1.795 C 67.3933,19.9842 65.1379,15.4315 62.0687,11.6558 55.8483,4.00278 46.7508,0.0813117 35.029,0 H 34.982 C 23.284,0.0810292 14.2884,4.01742 8.24512,11.6997 2.86746,18.536 0.0935,28.0482 2.91667e-4,39.9719 L 0,40 2.91667e-4,40.0281 C 0.0935,51.9517 2.86746,61.4642 8.24512,68.3004 14.2884,75.9825 23.284,79.9192 34.982,80 h 0.047 C 45.4292,79.9279 52.76,77.205 58.7992,71.1713 66.7004,63.2775 66.4625,53.3829 63.8583,47.3087 61.99,42.9529 58.4279,39.4151 53.5571,37.0785 Z M 35.6002,53.9612 c -4.35,0.245 -8.8692,-1.7074 -9.092,-5.8895 -0.1652,-3.1009 2.2067,-6.5609 9.359,-6.973 0.819,-0.0473 1.6228,-0.0704 2.4124,-0.0704 2.5979,0 5.0283,0.2524 7.2379,0.7354 -0.8242,10.2925 -5.6583,11.9638 -9.9173,12.1975 z" fill="#000000" fill-rule="nonzero" opacity="1" stroke="none" id="path1" style="fill:#000000" />
</g>
</svg>

<?xml version="1.0" encoding="UTF-8" standalone="no"?>
<!DOCTYPE svg PUBLIC "-//W3C//DTD SVG 1.1//EN" "http://www.w3.org/Graphics/SVG/1.1/DTD/svg11.dtd">
<!-- Created with Vectornator (http://vectornator.io/) -->
<svg height="100%" stroke-miterlimit="10" style="fill-rule:nonzero;clip-rule:evenodd;stroke-linecap:round;stroke-linejoin:round;" version="1.1" viewBox="0 0 68.8267 80" width="100%" xml:space="preserve" xmlns="http://www.w3.org/2000/svg" xmlns:xlink="http://www.w3.org/1999/xlink">
<defs/>
<g id="Sem-Título">
<path d="M53.5571 37.0785C53.2125 36.9133 52.8625 36.7543 52.5079 36.6021C51.8904 25.2242 45.6733 18.7104 35.2341 18.6438C35.1868 18.6435 35.1398 18.6435 35.0925 18.6435C28.8485 18.6435 23.6555 21.3087 20.4592 26.1586L26.2004 30.097C28.5882 26.4743 32.3355 25.702 35.0953 25.702C35.1271 25.702 35.1591 25.702 35.1907 25.7023C38.6279 25.7242 41.2217 26.7236 42.9004 28.6725C44.1221 30.0914 44.9392 32.0521 45.3438 34.5266C42.2962 34.0086 39.0004 33.8494 35.4771 34.0514C25.552 34.6231 19.1713 40.4116 19.5998 48.455C19.8173 52.535 21.8499 56.045 25.3229 58.3379C28.2593 60.2763 32.0412 61.2242 35.9718 61.0096C41.1625 60.725 45.2346 58.7446 48.0754 55.1233C50.2329 52.3733 51.5975 48.8096 52.2 44.3192C54.6737 45.8121 56.5071 47.7767 57.5196 50.1383C59.2412 54.1529 59.3417 60.75 53.9587 66.1283C49.2425 70.84 43.5733 72.8783 35.0056 72.9412C25.5017 72.8708 18.3141 69.8229 13.6409 63.8821C9.26479 58.3192 7.00321 50.2842 6.91883 40C7.00321 29.7157 9.26479 21.6807 13.6409 16.1178C18.3141 10.177 25.5016 7.12917 35.0055 7.05854C44.5783 7.12971 51.8912 10.1922 56.7433 16.1617C59.1225 19.089 60.9163 22.7703 62.0987 27.0626L68.8267 25.2676C67.3933 19.9842 65.1379 15.4315 62.0687 11.6558C55.8483 4.00278 46.7508 0.0813117 35.029 0L34.982 0C23.284 0.0810292 14.2884 4.01742 8.24512 11.6997C2.86746 18.536 0.0935 28.0482 0.000291667 39.9719L0 40L0.000291667 40.0281C0.0935 51.9517 2.86746 61.4642 8.24512 68.3004C14.2884 75.9825 23.284 79.9192 34.982 80L35.029 80C45.4292 79.9279 52.76 77.205 58.7992 71.1713C66.7004 63.2775 66.4625 53.3829 63.8583 47.3087C61.99 42.9529 58.4279 39.4151 53.5571 37.0785ZM35.6002 53.9612C31.2502 54.2062 26.731 52.2538 26.5082 48.0717C26.343 44.9708 28.7149 41.5108 35.8672 41.0987C36.6862 41.0514 37.49 41.0283 38.2796 41.0283C40.8775 41.0283 43.3079 41.2807 45.5175 41.7637C44.6933 52.0562 39.8592 53.7275 35.6002 53.9612Z" fill="#000000" fill-rule="nonzero" opacity="1" stroke="none"/>
</g>
</svg>
